X: 3205
T: Bees In The Cherry Tree, The
R: slide
M: 12/8
K: Gmajor
|:gfg d2B G2B c2e|d2B BAG B2A A2f|
gfg d2B G2B c2e|d2B ABA G3 G3:|
|:gfg b2g aba a2g|faf def g2d B2d|
gfg b2g aba a2g|faf def g3 g2d:|

